X:9
T:AIR ON A G STRING 
C:JS Bach
N:TablEdited by Wendy Anthony Nov 2004 
L:1/8
Q:1/4=114
M:4/4
K:G
[E2G,2] C2 B,2 B,2 | [E2C2] A,2 G,2 G,2 | [E2A,2] [A=F]F DC B,C | B,2 G,A, [=F2G,2] F2 | 
G2 [E^A,]=A, [D2_B,2] GB, | A,E ^A,=A, [DG,]^C [GC]=F | [=F2A,2] [DA,]C [DC]E [FC]D | 
G,D A,G, CB, [=FG,]E | [E2G,2] C2 B,2 FG | C2 C/D/E [EA,]D DC | B,A, A,/B,/C [D2C2] B,A, | 
G,A, B,C D=F ED | [E2G,2] C2 B,2 B,2 | [E2C2] A,2 G,2 G,2 | [E2A,2] [A=F]F DC B,C | 
K:C
B,2 G,A, [F2G,2] F2 | 
K:G
G2 [E^A,]=A, [D2_B,2] GB, | A,E ^A,=A, [DG,]^C [GC]=F | [=F2A,2] [DA,]C [DC]E [FC]D | 
G,D A,G, CB, [=FG,]E | [E2G,2] C2 B,2 FG | C2 C/D/E [EA,]D DC | B,A, A,/B,/C [D2C2] B,A, | 
[D8G,8] | 
 

